svgs/thin/house-chimney-window.svg

<svg xmlns="http://www.w3.org/2000/svg" viewBox="0 0 576 512"><!--! Font Awesome Pro 6.3.0 by @fontawesome - https://fontawesome.com License - https://fontawesome.com/license (Commercial License) Copyright 2023 Fonticons, Inc. --><path d="M336 184C349.3 184 360 194.7 360 208V304C360 317.3 349.3 328 336 328H240C226.7 328 216 317.3 216 304V208C216 194.7 226.7 184 240 184H336zM232 304C232 308.4 235.6 312 240 312H336C340.4 312 344 308.4 344 304V208C344 203.6 340.4 200 336 200H240C235.6 200 232 203.6 232 208V304zM282.7 2.011C285.7-.6704 290.3-.6704 293.3 2.011L384 82.34V56C384 42.75 394.7 32 408 32H488C501.3 32 512 42.75 512 56V195.7L573.3 250C576.6 252.9 576.9 257.1 573.1 261.3C571.1 264.6 566 264.9 562.7 261.1L512 217.1V448C512 483.3 483.3 512 448 512H128C92.65 512 64 483.3 64 448V217.1L13.3 261.1C9.997 264.9 4.941 264.6 2.012 261.3C-.9182 257.1-.6116 252.9 2.696 250L282.7 2.011zM384 104V103.7L288 18.69L80 202.9V448C80 474.5 101.5 496 128 496H448C474.5 496 496 474.5 496 448V202.9L384.3 103.1L384 104zM400 56V96.51L496 181.5V56C496 51.58 492.4 48 488 48H408C403.6 48 400 51.58 400 56V56z"/></svg>

<svg xmlns="http://www.w3.org/2000/svg" viewBox="0 0 576 512"><!--! Font Awesome Pro 6.4.0 by @fontawesome - https://fontawesome.com License - https://fontawesome.com/license (Commercial License) Copyright 2023 Fonticons, Inc. --><path d="M282.7 2c3-2.7 7.6-2.7 10.6 0L384 82.3V56c0-13.3 10.7-24 24-24h80c13.3 0 24 10.7 24 24V195.7L573.3 250c3.3 2.9 3.6 8 .7 11.3s-8 3.6-11.3 .7L512 217.1V448c0 35.3-28.7 64-64 64H128c-35.3 0-64-28.7-64-64V217.1L13.3 262c-3.3 2.9-8.4 2.6-11.3-.7S-.6 252.9 2.7 250L282.7 2zM384 104v-.3l-96-85L80 202.9V448c0 26.5 21.5 48 48 48H448c26.5 0 48-21.5 48-48V202.9L384.3 104H384zm16-48V96.5l96 85V56c0-4.4-3.6-8-8-8H408c-4.4 0-8 3.6-8 8zM240 184h96c13.3 0 24 10.7 24 24v96c0 13.3-10.7 24-24 24H240c-13.3 0-24-10.7-24-24V208c0-13.3 10.7-24 24-24zm-8 24v96c0 4.4 3.6 8 8 8h96c4.4 0 8-3.6 8-8V208c0-4.4-3.6-8-8-8H240c-4.4 0-8 3.6-8 8z"/></svg>
